svgs/sharp-thin/list.svg

<svg xmlns="http://www.w3.org/2000/svg" viewBox="0 0 512 512"><!--! Font Awesome Pro 6.6.0 by @fontawesome - https://fontawesome.com License - https://fontawesome.com/license (Commercial License) Copyright 2024 Fonticons, Inc. --><path d="M32 64l0 64 64 0 0-64L32 64zM16 48l16 0 64 0 16 0 0 16 0 64 0 16-16 0-64 0-16 0 0-16 0-64 0-16zM176 88l320 0 8 0 0 16-8 0-320 0-8 0 0-16 8 0zm0 160l320 0 8 0 0 16-8 0-320 0-8 0 0-16 8 0zm0 160l320 0 8 0 0 16-8 0-320 0-8 0 0-16 8 0zM96 224l-64 0 0 64 64 0 0-64zM32 208l64 0 16 0 0 16 0 64 0 16-16 0-64 0-16 0 0-16 0-64 0-16 16 0zm0 176l0 64 64 0 0-64-64 0zM16 368l16 0 64 0 16 0 0 16 0 64 0 16-16 0-64 0-16 0 0-16 0-64 0-16z"/></svg>

<svg xmlns="http://www.w3.org/2000/svg" viewBox="0 0 512 512"><!--! Font Awesome Pro 6.5.2 by @fontawesome - https://fontawesome.com License - https://fontawesome.com/license (Commercial License) Copyright 2024 Fonticons, Inc. --><path d="M32 64v64H96V64H32zM16 48H32 96h16V64v64 16H96 32 16V128 64 48zM176 88H496h8v16h-8H176h-8V88h8zm0 160H496h8v16h-8H176h-8V248h8zm0 160H496h8v16h-8H176h-8V408h8zM96 224H32v64H96V224zM32 208H96h16v16 64 16H96 32 16V288 224 208H32zm0 176v64H96V384H32zM16 368H32 96h16v16 64 16H96 32 16V448 384 368z"/></svg>
